src/main/resources/extra-icons/rego.svg

<?xml version="1.0" encoding="UTF-8"?>
<svg xmlns="http://www.w3.org/2000/svg" width="16px" height="16px" viewBox="0 0 16 16" version="1.1">
<g id="surface1">
<path style=" stroke:none;fill-rule:nonzero;fill:rgb(74.901961%,74.901961%,74.901961%);fill-opacity:1;" d="M 2.214844 7.9375 C 2.515625 6.957031 3.058594 6.097656 3.765625 5.410156 C 3.527344 5.246094 2.582031 4.578125 2.539062 4.054688 C 2.46875 3.195312 3.414062 0.304688 3.414062 0.304688 C 3.414062 0.304688 0.554688 3.46875 0.359375 4.746094 C 0.199219 5.746094 2.007812 7.738281 2.199219 7.9375 Z M 13.84375 7.882812 L 13.84375 7.890625 C 13.84375 7.894531 13.847656 7.898438 13.847656 7.902344 C 14.164062 7.558594 15.800781 5.703125 15.652344 4.746094 C 15.453125 3.46875 12.59375 0.304688 12.59375 0.304688 C 12.59375 0.304688 13.542969 3.195312 13.472656 4.054688 C 13.433594 4.558594 12.570312 5.1875 12.285156 5.382812 C 12.992188 6.058594 13.539062 6.910156 13.84375 7.882812 Z M 13.84375 7.882812 "/>
<path style=" stroke:none;fill-rule:nonzero;fill:rgb(33.72549%,38.823529%,40%);fill-opacity:1;" d="M 13.84375 7.886719 L 13.84375 7.878906 C 13.539062 6.910156 12.992188 6.058594 12.285156 5.378906 C 11.171875 4.316406 9.660156 3.675781 8.03125 3.675781 L 8.03125 7.089844 L 8.035156 7.089844 C 8.4375 7.09375 8.757812 7.390625 8.757812 7.753906 C 8.757812 7.800781 8.753906 7.839844 8.746094 7.878906 C 8.683594 8.183594 8.390625 8.417969 8.035156 8.421875 L 8.023438 8.421875 L 8.023438 9.6875 L 8.015625 15.6875 L 8.15625 15.6875 C 8.15625 15.6875 9.691406 13.667969 10.523438 13.089844 C 11.492188 12.414062 13.84375 11.578125 13.84375 11.578125 L 13.84375 7.929688 L 13.855469 7.925781 C 13.851562 7.917969 13.851562 7.90625 13.847656 7.898438 C 13.847656 7.894531 13.847656 7.890625 13.84375 7.886719 Z M 13.84375 7.886719 "/>
<path style=" stroke:none;fill-rule:nonzero;fill:rgb(49.019608%,56.862745%,60%);fill-opacity:1;" d="M 8.023438 9.691406 L 8.023438 8.425781 C 7.6875 8.421875 7.410156 8.214844 7.324219 7.9375 C 7.308594 7.878906 7.296875 7.820312 7.296875 7.757812 C 7.296875 7.390625 7.621094 7.09375 8.027344 7.09375 L 8.03125 7.09375 L 8.03125 3.691406 C 6.394531 3.691406 4.878906 4.332031 3.765625 5.410156 C 3.058594 6.09375 2.515625 6.957031 2.214844 7.9375 L 2.203125 7.9375 L 2.203125 11.632812 C 2.203125 11.632812 4.554688 12.46875 5.523438 13.144531 C 6.328125 13.707031 7.882812 15.695312 7.882812 15.695312 L 8.027344 15.695312 L 8.027344 15.691406 L 8.019531 15.691406 Z M 8.023438 9.691406 "/>
<path style=" stroke:none;fill-rule:nonzero;fill:rgb(100%,100%,100%);fill-opacity:1;" d="M 7.296875 7.757812 C 7.296875 7.820312 7.304688 7.878906 7.324219 7.9375 C 7.410156 8.214844 7.6875 8.421875 8.023438 8.425781 L 8.035156 8.425781 C 8.386719 8.421875 8.683594 8.1875 8.746094 7.882812 C 8.753906 7.84375 8.757812 7.804688 8.757812 7.757812 C 8.757812 7.394531 8.4375 7.097656 8.035156 7.09375 L 8.027344 7.09375 C 7.621094 7.09375 7.296875 7.390625 7.296875 7.757812 Z M 7.296875 7.757812 "/>
</g>
</svg>

<svg xmlns="http://www.w3.org/2000/svg" width="16" height="16" viewBox="0 0 16 16"><path style="stroke:none;fill-rule:nonzero;fill:#bfbfbf;fill-opacity:1" d="M2.215 7.938c.3-.981.844-1.84 1.55-2.528-.238-.164-1.183-.832-1.226-1.355-.07-.86.875-3.75.875-3.75S.554 3.469.36 4.746c-.16 1 1.649 2.992 1.84 3.191Zm11.629-.055v.008c0 .004.004.007.004.011.316-.343 1.953-2.199 1.804-3.156C15.453 3.47 12.594.305 12.594.305s.949 2.89.879 3.75c-.04.504-.903 1.133-1.188 1.328a5.897 5.897 0 0 1 1.559 2.5Zm0 0"/><path style="stroke:none;fill-rule:nonzero;fill:#566366;fill-opacity:1" d="M13.844 7.887v-.008a5.945 5.945 0 0 0-1.559-2.5 6.16 6.16 0 0 0-4.254-1.703V7.09h.004c.402.004.723.3.723.664a.618.618 0 0 1-.012.125c-.062.305-.355.539-.71.543h-.013v1.265l-.007 6h.14s1.535-2.019 2.367-2.597c.97-.676 3.32-1.512 3.32-1.512V7.93l.012-.004c-.003-.008-.003-.02-.007-.028 0-.003 0-.007-.004-.011Zm0 0"/><path style="stroke:none;fill-rule:nonzero;fill:#7d9199;fill-opacity:1" d="M8.023 9.691V8.426c-.335-.004-.613-.211-.699-.489a.69.69 0 0 1-.027-.18c0-.366.324-.663.73-.663h.004V3.69a6.12 6.12 0 0 0-4.265 1.72 5.937 5.937 0 0 0-1.551 2.527h-.012v3.695s2.352.836 3.32 1.512c.805.562 2.36 2.55 2.36 2.55h.144v-.004H8.02Zm0 0"/><path style="stroke:none;fill-rule:nonzero;fill:#fff;fill-opacity:1" d="M7.297 7.758c0 .062.008.12.027.18.086.277.364.484.7.488h.011c.352-.004.649-.239.711-.543a.618.618 0 0 0 .012-.125c0-.363-.32-.66-.723-.664h-.008c-.406 0-.73.297-.73.664Zm0 0"/></svg>
